website/src/static/charts/linechart.svg

<svg width="148" height="80" viewBox="0 0 148 80" fill="none" xmlns="http://www.w3.org/2000/svg">
<path d="M146 41.4189L141.2 37.6677L136.4 41.4189L131.6 37.6677L126.8 32.6304H122L117.2 37.6677L112.4 32.6304L107.6 37.6677L102.8 29.7367H98H93.2L88.4 32.6304L83.6 27.1644L78.8 29.7367H74H69.2L64.4 27.1644L59.6 29.7367H54.8L50 34.7739H45.2H40.4L35.6 29.7367H30.8L26 27.1644L21.2 24.2707L16.4 19.6621L11.6 24.2707L6.79999 19.6621H2" stroke="#2BB3FF" stroke-width="3" stroke-linecap="round"/>
<path d="M2 67.9055L6.8 65.4591L11.6 67.9055L16.4 65.4591L21.2 62.1739H26L30.8 65.4591L35.6 62.1739L40.4 65.4591L45.2 60.2867H50H54.8L59.6 62.1739L64.4 58.6091L69.2 60.2867H74H78.8L83.6 58.6091L88.4 60.2867H93.2L98 63.5718H102.8H107.6L112.4 60.2867H117.2L122 58.6091L126.8 56.7219L131.6 53.7163L136.4 56.7219L141.2 53.7163H146" stroke="#59DDAA" stroke-width="3" stroke-linecap="round"/>
<path d="M2 48.9865L6.8 41.9734L11.6 48.9865L16.4 41.9734L21.2 32.5559H26L30.8 41.9734L35.6 32.5559L40.4 41.9734L45.2 27.1458H50H54.8L59.6 32.5559L64.4 22.3369L69.2 27.1458H74H78.8L83.6 22.3369L88.4 27.1458H93.2L98 36.5634H102.8H107.6L112.4 27.1458H117.2L122 22.3369L126.8 16.9268L131.6 8.31079L136.4 16.9268L141.2 8.31079H146" stroke="#FF622D" stroke-width="3" stroke-linecap="round"/>
<path d="M2 46.6215L6.8 48.9048L11.6 46.6215L16.4 48.9048L21.2 51.971H26L30.8 48.9048L35.6 51.971L40.4 48.9048L45.2 53.7324H50H54.8L59.6 51.971L64.4 55.2981L69.2 53.7324H74H78.8L83.6 55.2981L88.4 53.7324H93.2L98 50.6662H102.8H107.6L112.4 53.7324H117.2L122 55.2981L126.8 57.0595L131.6 59.8647L136.4 57.0595L141.2 59.8647H146" stroke="#F67CF2" stroke-width="3" stroke-linecap="round"/>
</svg>

<svg xmlns="http://www.w3.org/2000/svg" width="148" height="80" fill="none" viewBox="0 0 148 80">
  <path stroke="#2BB3FF" stroke-linecap="round" stroke-width="3" d="m146 41.419-4.8-3.751-4.8 3.75-4.8-3.75-4.8-5.038H122l-4.8 5.038-4.8-5.038-4.8 5.038-4.8-7.931h-9.6l-4.8 2.893-4.8-5.466-4.8 2.573h-9.6l-4.8-2.573-4.8 2.573h-4.8L50 34.774h-9.6l-4.8-5.037h-4.8L26 27.164l-4.8-2.893-4.8-4.609-4.8 4.609-4.8-4.609H2"/>
  <path stroke="#59DDAA" stroke-linecap="round" stroke-width="3" d="m2 67.906 4.8-2.447 4.8 2.447 4.8-2.447 4.8-3.285H26l4.8 3.285 4.8-3.285 4.8 3.285 4.8-5.172h9.6l4.8 1.887 4.8-3.565 4.8 1.678h9.6l4.8-1.678 4.8 1.678h4.8l4.8 3.285h9.6l4.8-3.285h4.8l4.8-1.678 4.8-1.887 4.8-3.006 4.8 3.006 4.8-3.006h4.8"/>
  <path stroke="#FF622D" stroke-linecap="round" stroke-width="3" d="m2 48.986 4.8-7.013 4.8 7.014 4.8-7.014 4.8-9.417H26l4.8 9.417 4.8-9.417 4.8 9.417 4.8-14.827h9.6l4.8 5.41 4.8-10.22 4.8 4.81h9.6l4.8-4.81 4.8 4.81h4.8l4.8 9.417h9.6l4.8-9.417h4.8l4.8-4.81 4.8-5.41 4.8-8.615 4.8 8.616 4.8-8.616h4.8"/>
  <path stroke="#F67CF2" stroke-linecap="round" stroke-width="3" d="m2 46.621 4.8 2.284 4.8-2.284 4.8 2.284 4.8 3.066H26l4.8-3.066 4.8 3.066 4.8-3.066 4.8 4.827h9.6l4.8-1.761 4.8 3.327 4.8-1.566h9.6l4.8 1.566 4.8-1.566h4.8l4.8-3.066h9.6l4.8 3.066h4.8l4.8 1.566 4.8 1.761 4.8 2.806 4.8-2.806 4.8 2.806h4.8"/>
</svg>
